X:1
T:Southwick, 87.88.77.777
T:Southwick, 87.88.77.777
T:Charles John Vincent, Jr., 1897
T:Public Domain Courtesy of the Cyber Hymnal™
C:Charles John Vincent, Jr., 1897
Z:Public Domain
Z:Courtesy of the Cyber Hymnal™
%%score ( 1 2 ) ( 3 4 )
L:1/8
Q:1/4=110
M:none
K:Eb
V:1 treble 
V:2 treble 
V:3 bass 
V:4 bass 
V:1
 B3 G F2 E2 | [Ec]2 [Fc]2 [Ac]2 [GB]2 | [Ge]3 [^Fd] [Gc]2 G2 | [Ed]2 [Ec]2 [DB]4 | F3 G A2 [DA]2 | %5
 A3 z B [FA]2 [EG]2 | G3 =A B2 [=EB]2 | B3 z c [GB]2 [F=A]2 | =A3 B c2 [Fc]2 | [Fd]2 [Fe]2 [Fd]4 | %10
 [Fc]2 [DB]2 [Ee]3 [Ee] | [Ed]2 c2 [GB]4 | [AB]2 [GB]2 [Ac]3 [Gc] | [Fc]2 [FA]2 [EG]4 | %14
 [EG]3 [EF] [EG]2 [EA]2 | [Dc]3 [Dc] [EB]4 | [EA]2 [EG]2 [EG]3 [EF] x2 | [EG]2 [DF]2 E4 |] %18
V:2
 B3 G F2 E2 | x8 | x6 G2 | x8 | F3 G A2 x2 | E2 F2 x5 | G3 =A B2 x2 | F2 G2 x5 | =A3 B c2 x2 | x8 | %10
 x8 | x2 (EF) x4 | x8 | x8 | x8 | x8 | x10 | x4 E4 |] %18
V:3
 B,3 G, F,2 E,2 | [A,C]2 [F,A,]2 [D,F,]2 [E,B,]2 | [C,B,]3 [D,=A,] [E,G,]2 (CB,) | %3
 [F,=A,]2 [F,A,]2 B,4 | F,3 G, A,2 [B,,B,]2 | [C,B,]2 [D,B,]2 [E,B,]2 [E,B,]2 x | %6
 G,3 =A, B,2 [C,C]2 | [D,C]2 [=E,C]2 [F,C]2 [F,C]2 x | =A,3 B, C2 [F,A,]2 | %9
 [F,B,]2 [F,C]2 [B,,B,]4 | [A,D]2 [A,B,]2 [G,B,]3 [G,B,] | (A,B,) (CD) [G,E]4 | %12
 [F,D]2 [E,E]2 [A,,E]3 [A,,E] | [B,,D]2 [B,,D]2 [C,E]4 | [A,,C]3 [A,,C] [A,C]2 [A,C]2 | %15
 [F,A,]3 [F,A,] G,4 | [C,A,]2 [B,,B,]2 (C2 z) x3 | [B,,B,]2 [B,,A,]2 [E,G,]4 |] %18
V:4
 B,3 G, F,2 E,2 | x8 | x6 E,2 | x4 B,4 | F,3 A,2 x3 | x9 | G,3 =A, B,2 x2 | x9 | =A,3 B, C2 x2 | %9
 x8 | x8 | A,2 A,2 x4 | x8 | x8 | x8 | x4 G,4 | x4 A,,3 C2 A,, | x8 |] %18

